assets/icons/qvision/unsubscribe.svg

<svg xmlns="http://www.w3.org/2000/svg" height="24" viewBox="0 0 24 24" width="24"><path d="M18.5 13c-1.93 0-3.5 1.57-3.5 3.5s1.57 3.5 3.5 3.5 3.5-1.57 3.5-3.5-1.57-3.5-3.5-3.5zm2 4h-4v-1h4v1zm-6.95 0c-.02-.17-.05-.33-.05-.5 0-2.76 2.24-5 5-5 .92 0 1.76.26 2.5.69V5c0-1.1-.9-2-2-2H5c-1.1 0-2 .9-2 2v10c0 1.1.9 2 2 2h8.55zM12 10.5L5 7V5l7 3.5L19 5v2l-7 3.5z"/></svg>

<svg width="24" height="24" viewBox="0 0 24 24" fill="none" xmlns="http://www.w3.org/2000/svg">
<path d="M18.5 13C16.57 13 15 14.57 15 16.5C15 18.43 16.57 20 18.5 20C20.43 20 22 18.43 22 16.5C22 14.57 20.43 13 18.5 13ZM20.5 17H16.5V16H20.5V17ZM13.55 17C13.53 16.83 13.5 16.67 13.5 16.5C13.5 13.74 15.74 11.5 18.5 11.5C19.42 11.5 20.26 11.76 21 12.19V5C21 3.9 20.1 3 19 3H5C3.9 3 3 3.9 3 5V15C3 16.1 3.9 17 5 17H13.55ZM12 10.5L5 7V5L12 8.5L19 5V7L12 10.5Z" fill="#323232"/>
</svg>
